X: 1
T: \vSano Du\vso  [G]
T: Vranjanka
N: (Lesnoto)
O: Srbija
R: lesnoto
Z: 1998 John Chambers <jc:trillian.mit.edu>
N: This song is traditionally sung in both waltz and lesnoto rhythms.
M: 7/8
L: 1/8
K: G
"^instr"\
|: "Cm"[g_e][fd][_ec] "D"~[f2d2] [e/c/][d/B/][cA] | "G"[d2B2][cA] [dB][_ec] [fd][g_e] \
|  "Cm"[g_e][fd][_ec] "D"~[f2d2] [e/c/][d/B/][cA] | "G"[d3B3] [d2B2] z2 :|
"^vocal"\
|: "Cm"[g2_e][ge] [g2e] [g2e] | "D"[f2d][_ec] [dB][ec] [fd][ge] | "Cm"[f2d][_ec] [f2d] [e2c] | "G"[d3B] [d4B] :|
w: 1.~\vSa-no du-\vso, \vSa-no mo-*ri,* ot-vo-ri mi vra-ta.
w: 2.~No\'c li ho-di, div-no \vSa-*no,* ja si tu-ga vi-jem.
w: 3.~Tvo-je li-ce be-lo, \vSa-*no,* sneg je za pla-ni-ne.
[| "C"[=e2c][ec] [e2c] [e2c] | [e2c][dB] [ec][fd] [g2e] | "D7"[d2B][ec] [d2B] [c2A] | "G"[B3G] [B4G] |]
w:    Ot-vo-ri mi, \vSa-no, vra-*ta, da ti dam du-ka-ta.
w:    U-ba-vi-nja tvo-ja, \vSa-*no, ne da mi da spi-jem.
w:    Tvo-je \'ce-lo gi-di, \vSa-*no, ka-ko me-se-\'ci-ne.
[| "G"[B2G][cA] [d2B] [cA][BG] | "Am"[AF][A2F] [e4c] | "D7"[d2B][ec] [d2B] [c2A] | "G"[B3G] [B4G] |
w:    Oj, le le le le le le le, iz-go-re za te-be,
|  "G"[B2G][cA] [d2B] ([cA][BG]) | "Am"[A3F] [e4c] | "D7"([d2B2][ec]) [d2B] [c2A] | "G"[B3G] [B4G] |]
w:    Iz-go-re mi,* \vSa-no, sr-*ce za te-be.

%%sep 1 1 500
%%sep 1 1 500

